X: 1
T: SHEPHERD'S HEY
S: MDT
O: Headington
R: A.(A2B2)4.A
B: Morris Ring
Z: 2005 John Chambers <jc@trillian.mit.edu>
M: 4/4
L: 1/8
K: G
P: A
|: A | B>c d>B c2 d>c | B>c d>B A2 D2 | B>c d>B c2 B>c | d2 F2 G3 :|
P: B
|: A | B2  G2  c3   A | B2  G2  A4    | B>c d>B c2 B>c | d2 F2 G3 :|
